HTML/img/Rhythms/Rhythm_HalfNote.svg

<svg width="612" height="792" viewBox="0 0 40 40" xmlns="http://www.w3.org/2000/svg"><path class="Stem" fill="none" stroke="#000" stroke-width=".65" stroke-linecap="round" stroke-linejoin="bevel" d="M16.848 14.348v14.841"/><path class="Note" d="M22.832 12.256a.745.745 0 00-.254-.567.804.804 0 00-.586-.253c-.39 0-1.178.39-2.363 1.17-1.224.795-1.973 1.361-2.246 1.7a.91.91 0 00-.215.566c0 .221.085.411.254.567a.763.763 0 00.586.253c.377 0 1.172-.39 2.383-1.171 1.198-.781 1.94-1.347 2.226-1.7a.853.853 0 00.215-.565m-1.035-1.445c1.12 0 1.68.48 1.68 1.445 0 .469-.137 1.015-.411 1.64-.273.612-.638 1.081-1.093 1.406-1.003.677-2.259 1.015-3.77 1.015-1.12 0-1.68-.48-1.68-1.445 0-.43.137-.97.411-1.621.26-.625.625-1.1 1.093-1.425 1.003-.678 2.26-1.015 3.77-1.015"/></svg>

<?xml version="1.0" encoding="utf-8"?>
<svg width="612px" height="792px" viewBox="0 0 40 40" xmlns="http://www.w3.org/2000/svg">
  <title>Rhythm Reference</title>
  <desc>Generated by MuseScore 2.0.3</desc>
  <polyline class="Stem" fill="none" stroke="#000000" stroke-width="0.65" stroke-linecap="round" stroke-linejoin="bevel" points="16.848 14.348 16.848 29.189"/>
  <path class="Note" d="M 22.832 12.256 C 22.832 12.035 22.747 11.845 22.578 11.689 C 22.409 11.52 22.214 11.436 21.992 11.436 C 21.602 11.436 20.814 11.826 19.629 12.606 C 18.405 13.401 17.656 13.967 17.383 14.306 C 17.24 14.489 17.168 14.677 17.168 14.872 C 17.168 15.093 17.253 15.283 17.422 15.439 C 17.578 15.608 17.773 15.692 18.008 15.692 C 18.385 15.692 19.18 15.302 20.391 14.521 C 21.589 13.74 22.331 13.174 22.617 12.821 C 22.76 12.652 22.832 12.464 22.832 12.256 M 21.797 10.811 C 22.917 10.811 23.477 11.291 23.477 12.256 C 23.477 12.725 23.34 13.271 23.066 13.896 C 22.793 14.508 22.428 14.977 21.973 15.302 C 20.97 15.979 19.714 16.317 18.203 16.317 C 17.083 16.317 16.523 15.837 16.523 14.872 C 16.523 14.442 16.66 13.902 16.934 13.251 C 17.194 12.626 17.559 12.151 18.027 11.826 C 19.03 11.148 20.287 10.811 21.797 10.811"/>
</svg>
